COLOR/action 16/16/align-vertical-node.svg

<?xml version="1.0" encoding="UTF-8" standalone="no"?>
<svg
   xmlns:dc="http://purl.org/dc/elements/1.1/"
   xmlns:cc="http://creativecommons.org/ns#"
   xmlns:rdf="http://www.w3.org/1999/02/22-rdf-syntax-ns#"
   xmlns:svg="http://www.w3.org/2000/svg"
   xmlns="http://www.w3.org/2000/svg"
   xmlns:sodipodi="http://sodipodi.sourceforge.net/DTD/sodipodi-0.dtd"
   xmlns:inkscape="http://www.inkscape.org/namespaces/inkscape"
   height="24"
   viewBox="0 0 24 24"
   width="24"
   version="1.1"
   id="svg15"
   sodipodi:docname="align-vertical-node.svg"
   inkscape:version="0.92.4 (5da689c313, 2019-01-14)">
  <metadata
     id="metadata21">
    <rdf:RDF>
      <cc:Work
         rdf:about="">
        <dc:format>image/svg+xml</dc:format>
        <dc:type
           rdf:resource="http://purl.org/dc/dcmitype/StillImage" />
      </cc:Work>
    </rdf:RDF>
  </metadata>
  <defs
     id="defs19" />
  <sodipodi:namedview
     pagecolor="#ffffff"
     bordercolor="#666666"
     borderopacity="1"
     objecttolerance="10"
     gridtolerance="10"
     guidetolerance="10"
     inkscape:pageopacity="0"
     inkscape:pageshadow="2"
     inkscape:window-width="1920"
     inkscape:window-height="1016"
     id="namedview17"
     showgrid="true"
     inkscape:zoom="256"
     inkscape:cx="24.025076"
     inkscape:cy="10.441266"
     inkscape:window-x="0"
     inkscape:window-y="27"
     inkscape:window-maximized="1"
     inkscape:current-layer="g13">
    <inkscape:grid
       type="xygrid"
       id="grid831" />
  </sodipodi:namedview>
  <g
     transform="matrix(0 -.95788965 .95812186 0 -133.63086 1149.0159)"
     id="g13">
    <path
       d="m1186 140v.5 23 .5h1v-.5-23-.5z"
       id="path2"
       fill="#e95420" />
    <path
       d="m1175.4844 139.99414a.50005.50005 0 0 0 -.3633.83203c.9072 1.05846 2.5526 1.56717 4.4824 1.98047 1.9299.41331 4.1651.68775 6.2422 1.03516s3.9979.78053 5.2305 1.43164c.6163.32555 1.0484.69752 1.2851 1.10547s.3137.86228.1543 1.5c-.085.34068-.3259.62302-.789.89648s-1.1311.50618-1.9297.69922c-1.5973.38607-3.7036.62219-5.8145.96875s-4.2307.80035-5.9101 1.68555c-1.6794.88519-2.9334 2.28408-3.0703 4.33789-.054.81545.2455 1.54265.7812 2.07812s1.276.90592 2.1543 1.19727c1.7565.58269 4.1016.84421 6.6328 1.06445 5.0624.44048 10.8854.76475 13.6524 2.60938a.50005.50005 0 1 0 .5546-.83204c-3.233-2.15537-9.092-2.33586-14.1211-2.77343-2.5145-.21879-4.8181-.49205-6.4023-1.01758-.7921-.26277-1.3963-.58792-1.7637-.95508-.3673-.36716-.5293-.74819-.4922-1.30469.1131-1.69619 1.0466-2.7348 2.5391-3.52148s3.5289-1.23914 5.6055-1.58008 4.1891-.57357 5.8886-.98437c.8498-.20541 1.5999-.45315 2.2051-.81055.6053-.3574 1.0832-.85631 1.2481-1.51563.2093-.83758.1085-1.61286-.2578-2.24414-.3663-.63127-.9628-1.10753-1.6836-1.48828-1.4416-.7615-3.426-1.18076-5.5332-1.5332-2.1073-.35244-4.3342-.62638-6.1973-1.02539s-3.3408-.96471-3.9336-1.65625a.50005.50005 0 0 0 -.3945-.17969z"
       fill="#c43ac4"
       id="path4" />
    <path
       id="a"
       d="m1184.5 141c-.2761.00003-.5.22387-.5.5v4.00781c0 .27613.2239.49997.5.5h4.0664c.2761-.00003.5-.22387.5-.5v-4.00781c0-.27613-.2239-.49997-.5-.5z"
       fill-rule="evenodd"
       fill="#1a7fd4" />
    <path
       d="m 1184.5,148.03008 c -0.2761,3e-5 -0.5,0.22387 -0.5,0.5 v 4.00781 c 0,0.27613 0.2239,0.49997 0.5,0.5 h 4.0664 c 0.2761,-3e-5 0.5,-0.22387 0.5,-0.5 v -4.00781 c 0,-0.27613 -0.2239,-0.49997 -0.5,-0.5 z"
       id="path833"
       inkscape:connector-curvature="0"
       style="fill:#1a7fd4;fill-rule:evenodd" />
    <path
       style="fill:#1a7fd4;fill-rule:evenodd"
       inkscape:connector-curvature="0"
       id="path835"
       d="m 1184.5,157.94532 c -0.2761,3e-5 -0.5,0.22387 -0.5,0.5 v 4.00781 c 0,0.27613 0.2239,0.49997 0.5,0.5 h 4.0664 c 0.2761,-3e-5 0.5,-0.22387 0.5,-0.5 v -4.00781 c 0,-0.27613 -0.2239,-0.49997 -0.5,-0.5 z" />
    <path
       style="fill:#f0f0f0;stroke-width:0.95800573;fill-opacity:1;opacity:0.3"
       d="M 1.9433594 10.021484 C 1.6787932 10.021484 1.4648725 10.235527 1.4648438 10.5 L 1.4648438 11 C 1.4648725 10.735527 1.6787932 10.521484 1.9433594 10.521484 L 5.7832031 10.521484 C 6.0477693 10.521484 6.26169 10.735527 6.2617188 11 L 6.2617188 10.5 C 6.2616899 10.235527 6.0477693 10.021484 5.7832031 10.021484 L 1.9433594 10.021484 z M 8.6796875 10.021484 C 8.4151213 10.021484 8.1992475 10.235527 8.1992188 10.5 L 8.1992188 11 C 8.1992475 10.735527 8.4151213 10.521484 8.6796875 10.521484 L 12.519531 10.521484 C 12.784097 10.521484 12.998018 10.735527 12.998047 11 L 12.998047 10.5 C 12.998018 10.235527 12.784097 10.021484 12.519531 10.021484 L 8.6796875 10.021484 z M 18.179688 10.021484 C 17.91512 10.021484 17.699247 10.235527 17.699219 10.5 L 17.699219 11 C 17.699247 10.735527 17.915121 10.521484 18.179688 10.521484 L 22.019531 10.521484 C 22.284097 10.521484 22.498009 10.735527 22.498047 11 L 22.498047 10.5 C 22.498018 10.235527 22.284097 10.021484 22.019531 10.021484 L 18.179688 10.021484 z M 0.50585938 12 L 0.50585938 12.5 L 0.984375 12.5 L 1.4648438 12.5 L 1.4648438 12 L 0.984375 12 L 0.50585938 12 z M 6.2617188 12 L 6.2617188 12.5 L 8.1992188 12.5 L 8.1992188 12 L 6.2617188 12 z M 12.998047 12 L 12.998047 12.5 L 17.699219 12.5 L 17.699219 12 L 12.998047 12 z M 22.498047 12 L 22.498047 12.5 L 23.021484 12.5 L 23.501953 12.5 L 23.501953 12 L 23.021484 12 L 22.498047 12 z "
       id="path848"
       transform="matrix(0,1.0437086,-1.0439616,0,1199.5285,139.47167)" />
    <path
       id="path853"
       d="m 1184.0048,141.49997 c 0,-0.27613 0.2234,-0.4994 0.4995,-0.49943 h 0.522 c -0.2761,3e-5 -0.4995,0.2233 -0.4995,0.49943 v 4.00768 c 0,0.27613 0.2234,0.4994 0.4995,0.49943 h -0.522 c -0.2761,-3e-5 -0.4995,-0.2233 -0.4995,-0.49943 z m 0,7.03076 c 0,-0.27613 0.2234,-0.50143 0.4995,-0.50146 h 0.522 c -0.2761,3e-5 -0.4995,0.22533 -0.4995,0.50146 v 4.00768 c 0,0.27613 0.2234,0.4994 0.4995,0.49943 h -0.522 c -0.2761,-3e-5 -0.4995,-0.2233 -0.4995,-0.49943 z m 0,9.91524 c 0,-0.27614 0.2234,-0.50144 0.4995,-0.50147 h 0.522 c -0.2761,3e-5 -0.4995,0.22534 -0.4995,0.50147 v 4.00767 c 0,0.27613 0.2234,0.4994 0.4995,0.49944 h -0.522 c -0.2761,-4e-5 -0.4995,-0.22331 -0.4995,-0.49944 z M 1186,140 l 0.479,-3.6e-4 -9e-4,0.51574 9e-4,0.48516 -0.4739,0 -0,-0.48516 z m 10e-4,6.01116 0.478,-0.004 v 2.02219 l -0.4739,0 z m 0,7.02873 0.4739,-0.002 v 4.90666 l -0.4739,0 z m 0,9.90911 0.4699,0.004 v 1.04778 L 1186,164 c 0,0 0.01,-1.02897 0.01,-1.051 z"
       style="opacity:0.2;fill:#000000;fill-opacity:1;stroke-width:1"
       inkscape:connector-curvature="0"
       sodipodi:nodetypes="sccssccsssccssccsssccssccsscccccccccccccccccccccc" />
  </g>
</svg>

<svg height="24" viewBox="0 0 24 24" width="24" xmlns="http://www.w3.org/2000/svg"><g transform="matrix(0 -.95788965 .95812186 0 -133.63086 1149.0159)"><path d="m1186 140v.5 23 .5h1v-.5-23-.5z" fill="#e95420"/><path d="m1175.4844 139.99414a.50005.50005 0 0 0 -.3633.83203c.9072 1.05846 2.5526 1.56717 4.4824 1.98047 1.9299.41331 4.1651.68775 6.2422 1.03516s3.9979.78053 5.2305 1.43164c.6163.32555 1.0484.69752 1.2851 1.10547s.3137.86228.1543 1.5c-.085.34068-.3259.62302-.789.89648s-1.1311.50618-1.9297.69922c-1.5973.38607-3.7036.62219-5.8145.96875s-4.2307.80035-5.9101 1.68555c-1.6794.88519-2.9334 2.28408-3.0703 4.33789-.054.81545.2455 1.54265.7812 2.07812s1.276.90592 2.1543 1.19727c1.7565.58269 4.1016.84421 6.6328 1.06445 5.0624.44048 10.8854.76475 13.6524 2.60938a.50005.50005 0 1 0 .5546-.83204c-3.233-2.15537-9.092-2.33586-14.1211-2.77343-2.5145-.21879-4.8181-.49205-6.4023-1.01758-.7921-.26277-1.3963-.58792-1.7637-.95508-.3673-.36716-.5293-.74819-.4922-1.30469.1131-1.69619 1.0466-2.7348 2.5391-3.52148s3.5289-1.23914 5.6055-1.58008 4.1891-.57357 5.8886-.98437c.8498-.20541 1.5999-.45315 2.2051-.81055.6053-.3574 1.0832-.85631 1.2481-1.51563.2093-.83758.1085-1.61286-.2578-2.24414-.3663-.63127-.9628-1.10753-1.6836-1.48828-1.4416-.7615-3.426-1.18076-5.5332-1.5332-2.1073-.35244-4.3342-.62638-6.1973-1.02539s-3.3408-.96471-3.9336-1.65625a.50005.50005 0 0 0 -.3945-.17969z" fill="#c43ac4"/><g fill="#1a7fd4" fill-rule="evenodd"><path d="m1184.5 141c-.2761.00003-.5.22387-.5.5v4.00781c0 .27613.2239.49997.5.5h4.0664c.2761-.00003.5-.22387.5-.5v-4.00781c0-.27613-.2239-.49997-.5-.5z"/><path d="m1184.5 148.03008c-.2761.00003-.5.22387-.5.5v4.00781c0 .27613.2239.49997.5.5h4.0664c.2761-.00003.5-.22387.5-.5v-4.00781c0-.27613-.2239-.49997-.5-.5z"/><path d="m1184.5 157.94532c-.2761.00003-.5.22387-.5.5v4.00781c0 .27613.2239.49997.5.5h4.0664c.2761-.00003.5-.22387.5-.5v-4.00781c0-.27613-.2239-.49997-.5-.5z"/></g><path d="m1.9433594 10.021484c-.2645662 0-.4784869.214043-.4785156.478516v.5c.0000287-.264473.2139494-.478516.4785156-.478516h3.8398437c.2645662 0 .4784869.214043.4785157.478516v-.5c-.0000289-.264473-.2139495-.478516-.4785157-.478516zm6.7363281 0c-.2645662 0-.48044.214043-.4804687.478516v.5c.0000287-.264473.2159025-.478516.4804687-.478516h3.8398435c.264566 0 .478487.214043.478516.478516v-.5c-.000029-.264473-.21395-.478516-.478516-.478516zm9.5000005 0c-.264568 0-.480441.214043-.480469.478516v.5c.000028-.264473.215902-.478516.480469-.478516h3.839843c.264566 0 .478478.214043.478516.478516v-.5c-.000029-.264473-.21395-.478516-.478516-.478516zm-17.67382862 1.978516v.5h.47851562.4804688v-.5h-.4804688zm5.75585942 0v.5h1.9375v-.5zm6.7363282 0v.5h4.701172v-.5zm9.5 0v.5h.523437.480469v-.5h-.480469z" fill="#f0f0f0" opacity=".3" stroke-width=".958006" transform="matrix(0 1.0437086 -1.0439616 0 1199.5285 139.47167)"/><path d="m1184.0048 141.49997c0-.27613.2234-.4994.4995-.49943h.522c-.2761.00003-.4995.2233-.4995.49943v4.00768c0 .27613.2234.4994.4995.49943h-.522c-.2761-.00003-.4995-.2233-.4995-.49943zm0 7.03076c0-.27613.2234-.50143.4995-.50146h.522c-.2761.00003-.4995.22533-.4995.50146v4.00768c0 .27613.2234.4994.4995.49943h-.522c-.2761-.00003-.4995-.2233-.4995-.49943zm0 9.91524c0-.27614.2234-.50144.4995-.50147h.522c-.2761.00003-.4995.22534-.4995.50147v4.00767c0 .27613.2234.4994.4995.49944h-.522c-.2761-.00004-.4995-.22331-.4995-.49944zm1.9952-18.44597.479-.00036-.0009.51574.0009.48516h-.4739v-.48516zm.001 6.01116.478-.004v2.02219h-.4739zm0 7.02873.4739-.002v4.90666h-.4739zm0 9.90911.4699.004v1.04778l-.4709-.00078s.01-1.02897.01-1.051z" opacity=".2"/></g></svg>
